rospo-icon-theme-classic-common/48x48/apps/mattermost.svg

<svg height="48" viewBox="0 0 48 48" width="48" xmlns="http://www.w3.org/2000/svg"><circle cx="24" cy="25" opacity=".2" r="20"/><circle cx="24" cy="24" fill="#248afd" r="20"/><path d="m24 4a20 20 0 0 0 -20 20 20 20 0 0 0  .0196.586 20 20 0 0 1 19.9804-19.586 20 20 0 0 1 19.98 19.414 20 20 0 0 0  .02-.414 20 20 0 0 0 -20-20z" fill="#fff" opacity=".2"/><path d="m23.683594 11.015625a14 14 0 0 0 -13.683594 13.984375 14 14 0 0 0 14 14 14 14 0 0 0 14-14 14 14 0 0 0 -6.027344-11.464844v3.460938a10 10 0 0 1 2.027344 6.003906 10 10 0 0 1 -10 10 10 10 0 0 1 -10-10 10 10 0 0 1 7.816406-9.746094c.572134-.681619 1.280612-1.53408 1.578126-1.898437.09974-.122148.19272-.226071.289062-.339844zm3.597656 2.003906c-.07394.03271-.427632.424553-.789062.867188-.361428.442634-1.150692 1.388778-1.753906 2.105469-.603214.71669-1.748738 2.088628-2.54297 3.046874-1.56033 1.882542-1.80937 2.26213-2.066406 3.15625-.160528.558434-.174654 1.46049-.03126 1.984376.393134 1.436176 1.707584 2.512488 3.402344 2.789062.07704.0126.343366.02786.589844.03126 1.026922.0148 1.900318-.33208 2.640624-1.050782.390172-.378786.498448-.527794.738282-1.011718.15454-.3118.3223-.727454.375-.921876.1352-.498674.19922-1.528992.1289-3.886718v-6.867187c-.03681-.185589-.52451-.316016-.69139-.242198z" opacity=".2"/><path d="m23.683594 10.015625a14 14 0 0 0 -13.683594 13.984375 14 14 0 0 0 14 14 14 14 0 0 0 14-14 14 14 0 0 0 -6.027344-11.464844v3.460938a10 10 0 0 1 2.027344 6.003906 10 10 0 0 1 -10 10 10 10 0 0 1 -10-10 10 10 0 0 1 7.816406-9.746094c.572134-.681619 1.280612-1.53408 1.578126-1.898437.09974-.122148.19272-.226071.289062-.339844zm3.597656 2.003906c-.07394.03271-.427632.424553-.789062.867188-.361428.442634-1.150692 1.388778-1.753906 2.105469-.603214.71669-1.748738 2.088628-2.54297 3.046874-1.56033 1.882541-1.80937 2.26213-2.066406 3.15625-.160528.558434-.174654 1.46049-.03126 1.984376.393134 1.436176 1.707584 2.512488 3.402344 2.789062.07704.0126.343366.02786.589844.03126 1.026922.0148 1.900318-.33208 2.640624-1.050782.390172-.378786.498448-.527794.738282-1.011718.15454-.3118.3223-.727454.375-.921876.1352-.498674.19922-1.528992.1289-3.886718v-6.867187c-.03681-.185589-.52451-.316016-.69139-.242198z" fill="#fff"/></svg>

<svg xmlns="http://www.w3.org/2000/svg" width="48" height="48" version="1.1" viewBox="0 0 48 48">
 <circle style="opacity:0.2" cx="24" cy="25" r="20"/>
 <circle style="fill:#248afd" cx="24" cy="24" r="20"/>
 <path style="opacity:0.2;fill:#ffffff" d="M 24,4 A 20,20 0 0 0 4,24 20,20 0 0 0 4.0196,24.586 20,20 0 0 1 24,5 20,20 0 0 1 43.98,24.414 20,20 0 0 0 44,24 20,20 0 0 0 24,4 Z"/>
 <path d="M 23.683594,11.015625 A 14,14 0 0 0 10,25 14,14 0 0 0 24,39 14,14 0 0 0 38,25 14,14 0 0 0 31.972656,13.535156 l 0,3.460938 A 10,10 0 0 1 34,23 10,10 0 0 1 24,33 10,10 0 0 1 14,23 10,10 0 0 1 21.816406,13.253906 c 0.572134,-0.681619 1.280612,-1.53408 1.578126,-1.898437 0.09974,-0.122148 0.19272,-0.226071 0.289062,-0.339844 z m 3.597656,2.003906 c -0.07394,0.03271 -0.427632,0.424553 -0.789062,0.867188 -0.361428,0.442634 -1.150692,1.388778 -1.753906,2.105469 -0.603214,0.71669 -1.748738,2.088628 -2.54297,3.046874 -1.56033,1.882542 -1.80937,2.26213 -2.066406,3.15625 -0.160528,0.558434 -0.174654,1.46049 -0.03126,1.984376 0.393134,1.436176 1.707584,2.512488 3.402344,2.789062 0.07704,0.0126 0.343366,0.02786 0.589844,0.03126 1.026922,0.0148 1.900318,-0.33208 2.640624,-1.050782 0.390172,-0.378786 0.498448,-0.527794 0.738282,-1.011718 0.15454,-0.3118 0.3223,-0.727454 0.375,-0.921876 0.1352,-0.498674 0.19922,-1.528992 0.1289,-3.886718 l 0,-6.867187 c -0.03681,-0.185589 -0.52451,-0.316016 -0.69139,-0.242198 z" style="opacity:0.2"/>
 <path style="fill:#ffffff" d="M 23.683594,10.015625 A 14,14 0 0 0 10,24 14,14 0 0 0 24,38 14,14 0 0 0 38,24 14,14 0 0 0 31.972656,12.535156 l 0,3.460938 A 10,10 0 0 1 34,22 10,10 0 0 1 24,32 10,10 0 0 1 14,22 10,10 0 0 1 21.816406,12.253906 c 0.572134,-0.681619 1.280612,-1.53408 1.578126,-1.898437 0.09974,-0.122148 0.19272,-0.226071 0.289062,-0.339844 z m 3.597656,2.003906 c -0.07394,0.03271 -0.427632,0.424553 -0.789062,0.867188 -0.361428,0.442634 -1.150692,1.388778 -1.753906,2.105469 -0.603214,0.71669 -1.748738,2.088628 -2.54297,3.046874 -1.56033,1.882541 -1.80937,2.26213 -2.066406,3.15625 -0.160528,0.558434 -0.174654,1.46049 -0.03126,1.984376 0.393134,1.436176 1.707584,2.512488 3.402344,2.789062 0.07704,0.0126 0.343366,0.02786 0.589844,0.03126 1.026922,0.0148 1.900318,-0.33208 2.640624,-1.050782 0.390172,-0.378786 0.498448,-0.527794 0.738282,-1.011718 0.15454,-0.3118 0.3223,-0.727454 0.375,-0.921876 0.1352,-0.498674 0.19922,-1.528992 0.1289,-3.886718 l 0,-6.867187 c -0.03681,-0.185589 -0.52451,-0.316016 -0.69139,-0.242198 z"/>
</svg>
